assets/images/footer/brands/lineicons.svg

<svg fill="none" height="16" viewBox="0 0 123 16" width="123" xmlns="http://www.w3.org/2000/svg" xmlns:xlink="http://www.w3.org/1999/xlink"><linearGradient id="a" gradientUnits="userSpaceOnUse" x1="16.7351" x2="31.4707" y1="10.6924" y2="10.6924"><stop offset="0" stop-color="#003fff"/><stop offset=".6883" stop-color="#690aff"/></linearGradient><linearGradient id="b" gradientUnits="userSpaceOnUse" x1="2" x2="16.7466" y1="4.78908" y2="4.78908"><stop offset=".2862" stop-color="#e843a1"/><stop offset="1" stop-color="#003fff"/></linearGradient><linearGradient id="c" gradientUnits="userSpaceOnUse" x1="2" x2="31.4821" y1="7.73612" y2="7.73612"><stop offset=".16" stop-color="#e843a1"/><stop offset=".84" stop-color="#690aff"/></linearGradient><g stroke-miterlimit="10" stroke-width="3"><path d="m16.7354 7.73608c2.1734 2.94702 4.3837 5.89412 8.7306 5.89412 3.3154 0 6.0047-2.6523 6.0047-5.89412" stroke="url(#a)"/><path d="m2 7.73612c0-3.24173 2.68915-5.89408 6.00459-5.89408 4.34691 0 6.55721 2.94704 8.73071 5.89408" stroke="url(#b)"/><path d="m31.4706 7.73612c0-3.24173-2.6893-5.89408-6.0047-5.89408-4.3469 0-6.5572 2.94704-8.7306 5.89408-2.1735 2.94708-4.3838 5.89418-8.73071 5.89418-3.31544 0-6.00459-2.6524-6.00459-5.89418" stroke="url(#c)"/></g><path d="m37 15.4385v-15.4385h2.0235v13.4248h6.3231v2.0137zm10.3779-12.21656v-2.14796h2.0235v2.14796zm0 12.21656v-11.14257h2.0235v11.14257zm27.3391-12.21656v-2.14796h2.0235v2.14796zm0 12.21656v-11.14257h2.0235v11.14257zm-13.958-7.0816c-.063-.43626-.158-.90617-.3161-1.37602-.158-.46985-.4111-.90616-.6957-1.30894-.316-.40271-.6957-.73834-1.2013-.97324-.5061-.23496-1.1068-.36923-1.8339-.36923-.9483 0-1.739.20141-2.4026.63772-.3161.20136-.5692.43626-.8223.70475v-1.34247h-2.0235v11.14263h2.0235v-5.53777h.0315c0-.67121.0636-1.2082.2216-1.67811.1265-.46985.3161-.83903.5692-1.10752.253-.2685.5371-.46986.8537-.60413.3161-.13422.6636-.20136 1.0432-.20136.5692 0 1.0118.13422 1.3594.36917.3481.23496.6006.57054.8222.93977.1895.40271.3161.80548.3791 1.27534.0635.46985.095.90616.095 1.34251v5.2021h2.055v-5.94049c-.063-.33563-.0945-.7384-.158-1.17471zm51.098 0c-.063-.43626-.158-.90617-.316-1.37602s-.411-.90616-.696-1.30894c-.316-.40271-.695-.73834-1.201-.97324-.506-.23496-1.106-.36923-1.833-.36923-.949 0-1.739.20141-2.404.63772-.316.20136-.569.43626-.822.70475v-1.34247h-2.023v11.14263h2.023v-5.53777h.032c0-.67121.063-1.2082.221-1.67811.127-.46985.316-.83903.569-1.10752.254-.2685.538-.46986.854-.60413.316-.13422.664-.20136 1.043-.20136.57 0 1.012.13422 1.36.36917.348.23496.601.57054.791.93977.189.40271.316.80548.379 1.27534.063.46985.095.90616.095 1.34251v5.2021h2.055v-5.94049c-.032-.33563-.063-.7384-.127-1.17471zm-39.9929 2.0809h1.0117c.063-1.27542-.0635-2.3494-.4426-3.2891-.3796-.90617-.9488-1.64452-1.6759-2.11443-.7587-.50339-1.6754-.73834-2.7187-.73834-1.0118 0-1.929.23495-2.6877.7048-.7587.46986-1.3593 1.10753-1.802 1.98015-.4426.83903-.6327 1.84593-.6327 2.98699 0 1.07403.2216 2.04733.6642 2.88633.4426.8391 1.0433 1.4767 1.834 1.913.7902.4699 1.7069.7049 2.7502.7049 1.0117 0 1.929-.2685 2.7827-.772.8217-.5034 1.4544-1.2417 1.865-2.1815l-1.9915-.6377c-.2531.537-.6327.9733-1.0753 1.2418-.4741.3021-1.0118.4363-1.6439.4363-.9803 0-1.7075-.302-2.2131-.9397-.4111-.537-.6642-1.2418-.7272-2.1144h5.786.9168zm-6.0706-3.35624c.5061-.63767 1.2648-.9733 2.2766-.9733.9167 0 1.6124.30209 2.055.87262.3161.40277.5377 1.00684.6322 1.74525h-5.6595c.1265-.67127.3796-1.20826.6957-1.64457zm17.847 8.35694c-1.0753 0-1.992-.2349-2.7507-.7384-.7592-.4698-1.3284-1.1411-1.739-1.9801-.4111-.8391-.6006-1.8124-.6006-2.85281 0-1.07398.221-2.04728.6321-2.88631.4112-.83903.9803-1.51029 1.739-1.98015.7587-.46985 1.6754-.7048 2.7192-.7048 1.1378 0 2.118.30203 2.9402.87262.8217.57053 1.3594 1.37602 1.6125 2.34932l-2.0236.57053c-.1895-.60407-.5376-1.04038-.9802-1.37602-.4426-.33563-.9797-.50344-1.5809-.50344-.6637 0-1.2013.16781-1.644.4699-.4426.30204-.7586.73835-.9482 1.30888-.2215.537-.3166 1.17466-.3166 1.87947 0 1.07401.2531 1.98011.7592 2.65141.4741.6713 1.2013 1.0068 2.1816 1.0068.6636 0 1.1698-.1678 1.5804-.4698.4111-.302.7271-.7384.9172-1.3089l2.0551.5034c-.3476 1.0404-.9168 1.8123-1.7075 2.3829-.7587.537-1.7389.8055-2.8452.8055zm11.7372 0c-1.0438 0-1.9605-.2349-2.7192-.7048s-1.3593-1.1411-1.7704-1.9801c-.4112-.8391-.6327-1.8124-.6327-2.88641 0-1.10752.2215-2.08082.6327-2.91985.4426-.83908 1.0117-1.47675 1.8019-1.94661.7587-.46985 1.676-.7048 2.6877-.7048 1.0433 0 1.96.23495 2.7187.7048.7592.46986 1.3599 1.14112 1.8025 1.98015.4111.83903.6321 1.81233.6321 2.88631 0 1.10761-.221 2.08091-.6321 2.91991s-1.0118 1.4768-1.8025 1.9801c-.7902.4364-1.6754.6713-2.7187.6713zm0-1.9131c1.0118 0 1.739-.3355 2.2446-1.0068.5061-.6713.7587-1.5438.7587-2.65141 0-1.10752-.2526-1.98015-.7587-2.65136-.5056-.67126-1.2328-1.00689-2.2446-1.00689-.6957 0-1.2333.16781-1.6759.4699-.4427.30204-.7587.73835-.9803 1.27534-.221.53699-.3161 1.17466-.3161 1.87947 0 1.10755.2531 1.98015.7587 2.65145.4747.7048 1.2334 1.0403 2.2136 1.0403zm23.1583 1.9131c-1.265 0-2.308-.2685-3.13-.8391-.79-.5705-1.297-1.376-1.486-2.3828l2.086-.3357c.127.537.443.9733.886 1.309.474.302 1.043.4698 1.739.4698.632 0 1.138-.1343 1.486-.4027.348-.2685.537-.6041.537-1.074 0-.2685-.063-.4699-.189-.6377-.127-.1678-.38-.3356-.791-.4699-.411-.1342-1.011-.3356-1.834-.5705-.885-.2349-1.612-.5034-2.15-.77193-.537-.26849-.916-.60413-1.138-.93976-.221-.36917-.348-.80549-.348-1.30888 0-.63767.158-1.20826.506-1.67811s.822-.83903 1.423-1.10752c.601-.2685 1.328-.40277 2.15-.40277.79 0 1.517.13427 2.15.36917.632.2685 1.138.60413 1.517 1.07398.38.46986.633 1.00685.696 1.64457l-2.086.36917c-.064-.50345-.317-.90616-.696-1.20825-.411-.30204-.917-.46986-1.55-.46986-.6-.03354-1.106.06714-1.485.30204-.38.23496-.57.53699-.57.93976 0 .2349.063.43631.222.60413.158.16776.443.33558.853.46985.411.13422 1.044.33564 1.866.537.885.23489 1.581.46985 2.087.77189.505.26849.885.60412 1.106.97332.222.3692.348.8391.348 1.376 0 1.0404-.379 1.8795-1.138 2.4501-.696.6376-1.739.9397-3.067.9397z" fill="#fff"/></svg>

<svg width="123" height="16" viewBox="0 0 123 16" fill="none" xmlns="http://www.w3.org/2000/svg">
<path d="M16.7354 7.73608C18.9088 10.6831 21.1191 13.6302 25.466 13.6302C28.7814 13.6302 31.4707 10.9779 31.4707 7.73608" stroke="url(#paint0_linear)" stroke-width="3" stroke-miterlimit="10"/>
<path d="M2 7.73612C2 4.49439 4.68915 1.84204 8.00459 1.84204C12.3515 1.84204 14.5618 4.78908 16.7353 7.73612" stroke="url(#paint1_linear)" stroke-width="3" stroke-miterlimit="10"/>
<path d="M31.4706 7.73612C31.4706 4.49439 28.7813 1.84204 25.4659 1.84204C21.119 1.84204 18.9087 4.78908 16.7353 7.73612C14.5618 10.6832 12.3515 13.6303 8.00459 13.6303C4.68915 13.6303 2 10.9779 2 7.73612" stroke="url(#paint2_linear)" stroke-width="3" stroke-miterlimit="10"/>
<path d="M37 15.4385V0H39.0235V13.4248H45.3466V15.4385H37ZM47.3779 3.22194V1.07398H49.4014V3.22194H47.3779ZM47.3779 15.4385V4.29593H49.4014V15.4385H47.3779ZM74.717 3.22194V1.07398H76.7405V3.22194H74.717ZM74.717 15.4385V4.29593H76.7405V15.4385H74.717ZM60.759 8.3569C60.696 7.92064 60.601 7.45073 60.4429 6.98088C60.2849 6.51103 60.0318 6.07472 59.7472 5.67194C59.4312 5.26923 59.0515 4.9336 58.5459 4.6987C58.0398 4.46374 57.4391 4.32947 56.712 4.32947C55.7637 4.32947 54.973 4.53088 54.3094 4.96719C53.9933 5.16855 53.7402 5.40345 53.4871 5.67194V4.32947H51.4636V15.4721H53.4871V9.93433H53.5186C53.5186 9.26312 53.5822 8.72613 53.7402 8.25622C53.8667 7.78637 54.0563 7.41719 54.3094 7.1487C54.5624 6.8802 54.8465 6.67884 55.1631 6.54457C55.4792 6.41035 55.8267 6.34321 56.2063 6.34321C56.7755 6.34321 57.2181 6.47743 57.5657 6.71238C57.9138 6.94734 58.1663 7.28292 58.3879 7.65215C58.5774 8.05486 58.704 8.45763 58.767 8.92749C58.8305 9.39734 58.862 9.83365 58.862 10.27V15.4721H60.917V9.53161C60.854 9.19598 60.8225 8.79321 60.759 8.3569ZM111.857 8.3569C111.794 7.92064 111.699 7.45073 111.541 6.98088C111.383 6.51103 111.13 6.07472 110.845 5.67194C110.529 5.26923 110.15 4.9336 109.644 4.6987C109.138 4.46374 108.538 4.32947 107.811 4.32947C106.862 4.32947 106.072 4.53088 105.407 4.96719C105.091 5.16855 104.838 5.40345 104.585 5.67194V4.32947H102.562V15.4721H104.585V9.93433H104.617C104.617 9.26312 104.68 8.72613 104.838 8.25622C104.965 7.78637 105.154 7.41719 105.407 7.1487C105.661 6.8802 105.945 6.67884 106.261 6.54457C106.577 6.41035 106.925 6.34321 107.304 6.34321C107.874 6.34321 108.316 6.47743 108.664 6.71238C109.012 6.94734 109.265 7.28292 109.455 7.65215C109.644 8.05486 109.771 8.45763 109.834 8.92749C109.897 9.39734 109.929 9.83365 109.929 10.27V15.4721H111.984V9.53161C111.952 9.19598 111.921 8.79321 111.857 8.3569ZM71.8641 10.4378H72.8758C72.9388 9.16238 72.8123 8.0884 72.4332 7.1487C72.0536 6.24253 71.4844 5.50418 70.7573 5.03427C69.9986 4.53088 69.0819 4.29593 68.0386 4.29593C67.0268 4.29593 66.1096 4.53088 65.3509 5.00073C64.5922 5.47059 63.9916 6.10826 63.5489 6.98088C63.1063 7.81991 62.9162 8.82681 62.9162 9.96787C62.9162 11.0419 63.1378 12.0152 63.5804 12.8542C64.023 13.6933 64.6237 14.3309 65.4144 14.7672C66.2046 15.2371 67.1213 15.4721 68.1646 15.4721C69.1763 15.4721 70.0936 15.2036 70.9473 14.7001C71.769 14.1967 72.4017 13.4584 72.8123 12.5186L70.8208 11.8809C70.5677 12.4179 70.1881 12.8542 69.7455 13.1227C69.2714 13.4248 68.7337 13.559 68.1016 13.559C67.1213 13.559 66.3941 13.257 65.8885 12.6193C65.4774 12.0823 65.2243 11.3775 65.1613 10.5049H70.9473H71.8641V10.4378ZM65.7935 7.08156C66.2996 6.44389 67.0583 6.10826 68.0701 6.10826C68.9868 6.10826 69.6825 6.41035 70.1251 6.98088C70.4412 7.38365 70.6628 7.98772 70.7573 8.72613H65.0978C65.2243 8.05486 65.4774 7.51787 65.7935 7.08156ZM83.6405 15.4385C82.5652 15.4385 81.6485 15.2036 80.8898 14.7001C80.1306 14.2303 79.5614 13.559 79.1508 12.72C78.7397 11.8809 78.5502 10.9076 78.5502 9.86719C78.5502 8.79321 78.7712 7.81991 79.1823 6.98088C79.5935 6.14185 80.1626 5.47059 80.9213 5.00073C81.68 4.53088 82.5967 4.29593 83.6405 4.29593C84.7783 4.29593 85.7585 4.59796 86.5807 5.16855C87.4024 5.73908 87.9401 6.54457 88.1932 7.51787L86.1696 8.0884C85.9801 7.48433 85.632 7.04802 85.1894 6.71238C84.7468 6.37675 84.2097 6.20894 83.6085 6.20894C82.9448 6.20894 82.4072 6.37675 81.9645 6.67884C81.5219 6.98088 81.2059 7.41719 81.0163 7.98772C80.7948 8.52472 80.6997 9.16238 80.6997 9.86719C80.6997 10.9412 80.9528 11.8473 81.4589 12.5186C81.933 13.1899 82.6602 13.5254 83.6405 13.5254C84.3041 13.5254 84.8103 13.3576 85.2209 13.0556C85.632 12.7536 85.948 12.3172 86.1381 11.7467L88.1932 12.2501C87.8456 13.2905 87.2764 14.0624 86.4857 14.633C85.727 15.17 84.7468 15.4385 83.6405 15.4385ZM95.3777 15.4385C94.3339 15.4385 93.4172 15.2036 92.6585 14.7337C91.8998 14.2638 91.2992 13.5926 90.8881 12.7536C90.4769 11.9145 90.2554 10.9412 90.2554 9.86719C90.2554 8.75967 90.4769 7.78637 90.8881 6.94734C91.3307 6.10826 91.8998 5.47059 92.69 5.00073C93.4487 4.53088 94.366 4.29593 95.3777 4.29593C96.421 4.29593 97.3377 4.53088 98.0964 5.00073C98.8556 5.47059 99.4563 6.14185 99.8989 6.98088C100.31 7.81991 100.531 8.79321 100.531 9.86719C100.531 10.9748 100.31 11.9481 99.8989 12.7871C99.4878 13.6261 98.8871 14.2639 98.0964 14.7672C97.3062 15.2036 96.421 15.4385 95.3777 15.4385ZM95.3777 13.5254C96.3895 13.5254 97.1167 13.1899 97.6223 12.5186C98.1284 11.8473 98.381 10.9748 98.381 9.86719C98.381 8.75967 98.1284 7.88704 97.6223 7.21583C97.1167 6.54457 96.3895 6.20894 95.3777 6.20894C94.682 6.20894 94.1444 6.37675 93.7018 6.67884C93.2591 6.98088 92.9431 7.41719 92.7215 7.95418C92.5005 8.49117 92.4054 9.12884 92.4054 9.83365C92.4054 10.9412 92.6585 11.8138 93.1641 12.4851C93.6388 13.1899 94.3975 13.5254 95.3777 13.5254ZM118.536 15.4385C117.271 15.4385 116.228 15.17 115.406 14.5994C114.616 14.0289 114.109 13.2234 113.92 12.2166L116.006 11.8809C116.133 12.4179 116.449 12.8542 116.892 13.1899C117.366 13.4919 117.935 13.6597 118.631 13.6597C119.263 13.6597 119.769 13.5254 120.117 13.257C120.465 12.9885 120.654 12.6529 120.654 12.183C120.654 11.9145 120.591 11.7131 120.465 11.5453C120.338 11.3775 120.085 11.2097 119.674 11.0754C119.263 10.9412 118.663 10.7398 117.84 10.5049C116.955 10.27 116.228 10.0015 115.69 9.73297C115.153 9.46448 114.774 9.12884 114.552 8.79321C114.331 8.42404 114.204 7.98772 114.204 7.48433C114.204 6.84666 114.362 6.27607 114.71 5.80622C115.058 5.33637 115.532 4.96719 116.133 4.6987C116.734 4.4302 117.461 4.29593 118.283 4.29593C119.073 4.29593 119.8 4.4302 120.433 4.6651C121.065 4.9336 121.571 5.26923 121.95 5.73908C122.33 6.20894 122.583 6.74593 122.646 7.38365L120.56 7.75282C120.496 7.24937 120.243 6.84666 119.864 6.54457C119.453 6.24253 118.947 6.07471 118.314 6.07471C117.714 6.04117 117.208 6.14185 116.829 6.37675C116.449 6.61171 116.259 6.91374 116.259 7.31651C116.259 7.55141 116.322 7.75282 116.481 7.92064C116.639 8.0884 116.924 8.25622 117.334 8.39049C117.745 8.52471 118.378 8.72613 119.2 8.92749C120.085 9.16238 120.781 9.39734 121.287 9.69938C121.792 9.96787 122.172 10.3035 122.393 10.6727C122.615 11.0419 122.741 11.5118 122.741 12.0487C122.741 13.0891 122.362 13.9282 121.603 14.4988C120.907 15.1364 119.864 15.4385 118.536 15.4385Z" fill="white"/>
<defs>
<linearGradient id="paint0_linear" x1="16.7351" y1="10.6924" x2="31.4707" y2="10.6924" gradientUnits="userSpaceOnUse">
<stop stop-color="#003FFF"/>
<stop offset="0.6883" stop-color="#690AFF"/>
</linearGradient>
<linearGradient id="paint1_linear" x1="2" y1="4.78908" x2="16.7466" y2="4.78908" gradientUnits="userSpaceOnUse">
<stop offset="0.2862" stop-color="#E843A1"/>
<stop offset="1" stop-color="#003FFF"/>
</linearGradient>
<linearGradient id="paint2_linear" x1="2" y1="7.73612" x2="31.4821" y2="7.73612" gradientUnits="userSpaceOnUse">
<stop offset="0.16" stop-color="#E843A1"/>
<stop offset="0.84" stop-color="#690AFF"/>
</linearGradient>
</defs>
</svg>
